dist/flags/m/417.svg

<svg width="20" height="15" viewBox="0 0 20 15" fill="none" xmlns="http://www.w3.org/2000/svg">
<mask id="mask0" mask-type="alpha" maskUnits="userSpaceOnUse" x="0" y="0" width="20" height="15">
<rect width="20" height="15" fill="white"/>
</mask>
<g mask="url(#mask0)">
<path fill-rule="evenodd" clip-rule="evenodd" d="M0 0V15H20V0H0Z" fill="#C51918"/>
<mask id="mask1" mask-type="alpha" maskUnits="userSpaceOnUse" x="0" y="0" width="20" height="15">
<path fill-rule="evenodd" clip-rule="evenodd" d="M0 0V15H20V0H0Z" fill="white"/>
</mask>
<g mask="url(#mask1)">
<path fill-rule="evenodd" clip-rule="evenodd" d="M9.98877 11.1668C10.0557 11.1668 10.1223 11.165 10.1884 11.1616L10.5741 12.3914L10.6634 11.1065C10.7925 11.0832 10.9192 11.0533 11.0432 11.0172L11.7044 12.1257L11.4926 10.8546C11.612 10.8025 11.7282 10.7443 11.8408 10.6805L12.7425 11.6086L12.2404 10.4191C12.3441 10.3414 12.4435 10.2585 12.5384 10.1707L13.6324 10.8679L12.8671 9.82525C12.9499 9.72627 13.0277 9.62295 13.0999 9.51568L14.3261 9.94372L13.3397 9.10484C13.3973 8.98976 13.4491 8.8713 13.4946 8.74983L14.7862 8.88573L13.6319 8.29535C13.6609 8.1706 13.6836 8.04344 13.6996 7.91423L14.9879 7.75102L13.7275 7.44059C13.7269 7.31 13.7194 7.18101 13.7055 7.05395L14.9204 6.60075L13.6237 6.58703C13.593 6.46027 13.5556 6.33605 13.5121 6.21474L14.5872 5.49694L13.3235 5.77992C13.2641 5.66393 13.1987 5.55146 13.1277 5.44291L14.0064 4.49909L12.8432 5.06321C12.7585 4.96403 12.6687 4.86933 12.5741 4.77951L13.2092 3.661L12.2098 4.47496C12.1044 4.39765 11.9948 4.32569 11.8813 4.25951L12.2387 3.02785L11.4567 4.04677C11.3362 3.99568 11.2124 3.95069 11.0858 3.9122L11.1471 2.63376L10.6235 3.80322C10.4947 3.78138 10.3637 3.76607 10.2308 3.75765L9.99327 2.5L9.75583 3.75708C9.62269 3.7652 9.49143 3.78023 9.36241 3.80181L8.83947 2.63376L8.90062 3.90951C8.77327 3.94788 8.6488 3.9928 8.5276 4.04389L7.74787 3.02785L8.10393 4.25503C7.98943 4.32145 7.87882 4.39374 7.7725 4.47148L6.77731 3.661L7.40928 4.77396C7.31354 4.8645 7.22264 4.96002 7.13699 5.06012L5.98014 4.49909L6.85359 5.43723C6.78153 5.54697 6.71516 5.66074 6.65492 5.77811L5.39931 5.49694L6.46718 6.20989C6.42289 6.33277 6.38496 6.45864 6.35377 6.58713L5.06614 6.60075L6.27234 7.05072C6.25813 7.17955 6.25059 7.31036 6.25004 7.44281L4.9986 7.75102L6.27783 7.91307C6.29398 8.0441 6.31702 8.17302 6.34658 8.29947L5.20032 8.88573L6.48331 8.75074C6.52943 8.87378 6.58196 8.99374 6.64048 9.11021L5.66043 9.94372L6.87935 9.51822C6.9525 9.62665 7.03127 9.73104 7.11523 9.83098L6.35412 10.8679L7.44281 10.1741C7.53866 10.2626 7.6392 10.3461 7.74402 10.4242L7.244 11.6086L8.14258 10.6838C8.25594 10.7478 8.37301 10.8061 8.49338 10.8582L8.2821 12.1257L8.94198 11.0194C9.0665 11.0554 9.19371 11.0851 9.32323 11.1082L9.41244 12.3914L9.79797 11.162C9.86117 11.1652 9.92478 11.1668 9.98877 11.1668ZM12.8013 7.4473C12.8013 9.00031 11.532 10.2593 9.96626 10.2593C8.40053 10.2593 7.13126 9.00031 7.13126 7.4473C7.13126 5.8943 8.40053 4.63534 9.96626 4.63534C11.532 4.63534 12.8013 5.8943 12.8013 7.4473ZM11.9439 8.36329C12.0622 8.09735 12.1279 7.80287 12.1279 7.49303C12.1279 7.19033 12.0651 6.90229 11.9519 6.64121C11.4628 6.67599 11.048 6.80476 10.7116 6.96954C11.4583 7.29618 11.7961 7.83386 11.9439 8.36329ZM11.7029 8.77431C11.6418 8.85612 11.575 8.93343 11.5031 9.00563C11.4631 8.26778 11.1475 7.70516 10.5814 7.09819C11.2823 7.43396 11.6776 8.2365 11.7029 8.77431ZM11.1665 9.28128C11.1269 9.30752 11.0863 9.33247 11.0449 9.35609C10.8767 8.52698 10.5581 7.87282 10.1146 7.35003L10.2221 7.26898C10.2364 7.2582 10.251 7.24743 10.2658 7.23669C10.8333 7.88927 11.1912 8.44913 11.1665 9.28128ZM9.98463 9.6363C10.2361 9.6363 10.4775 9.59298 10.7018 9.51338C10.5389 8.72449 10.2551 7.98973 9.8443 7.45954C9.35345 8.04388 9.10371 8.70418 9.09452 9.4433C9.36562 9.56723 9.66706 9.6363 9.98463 9.6363ZM9.57209 7.20564C9.58919 7.21901 9.60549 7.23232 9.62101 7.24555C9.0982 7.84019 8.81219 8.51073 8.76348 9.25463C8.69926 9.21002 8.63759 9.162 8.57874 9.11081C8.77573 8.32432 9.10235 7.67545 9.57209 7.20564ZM8.0111 6.65568C8.50235 6.71101 8.89016 6.83046 9.18076 6.96873C8.44006 7.28347 8.14836 7.79058 8.00165 8.30778C7.89834 8.0566 7.84136 7.78147 7.84136 7.49303C7.84136 7.19592 7.90182 6.91293 8.0111 6.65568ZM8.28009 8.7925C8.26359 8.77089 8.24749 8.74896 8.23181 8.72672C8.26885 8.18362 8.61474 7.41294 9.31343 7.09521C8.84472 7.55007 8.49409 8.06785 8.28009 8.7925ZM8.43866 6.00857C8.82868 5.6025 9.37714 5.34976 9.98463 5.34976C10.5827 5.34976 11.1235 5.59468 11.5122 5.98969C10.9005 6.06065 10.3817 6.21403 9.96045 6.45264C9.5849 6.23716 9.07724 6.09151 8.43866 6.00857Z" fill="#FFDC17"/>
</g>
</g>
</svg>

<svg width="20" height="15" fill="none" xmlns="http://www.w3.org/2000/svg">
  <mask id="a" maskUnits="userSpaceOnUse" x="0" y="0" width="20" height="15">
    <path fill="#fff" d="M0 0h20v15H0z"/>
  </mask>
  <g mask="url(#a)">
    <path fill-rule="evenodd" clip-rule="evenodd" d="M0 0v15h20V0H0z" fill="#C51918"/>
    <mask id="b" maskUnits="userSpaceOnUse" x="0" y="0" width="20" height="15">
      <path fill-rule="evenodd" clip-rule="evenodd" d="M0 0v15h20V0H0z" fill="#fff"/>
    </mask>
    <g mask="url(#b)">
      <path fill-rule="evenodd" clip-rule="evenodd" d="M9.989 11.167c.067 0 .133-.002.2-.005l.385 1.23.09-1.285c.129-.024.255-.054.38-.09l.66 1.109-.212-1.271c.12-.053.236-.11.349-.175l.902.929-.503-1.19a3.56 3.56 0 00.298-.248l1.094.697-.765-1.043c.083-.099.16-.202.233-.31l1.226.429-.986-.84a3.61 3.61 0 00.155-.354l1.291.136-1.154-.59a3.68 3.68 0 00.068-.382l1.288-.163-1.26-.31a4.105 4.105 0 00-.022-.387l1.214-.453-1.296-.014a3.644 3.644 0 00-.112-.372l1.075-.718-1.264.283a3.68 3.68 0 00-.195-.337l.878-.944-1.163.564a3.743 3.743 0 00-.269-.283l.635-1.119-1 .814a3.744 3.744 0 00-.328-.215l.358-1.232-.782 1.019a3.73 3.73 0 00-.371-.135l.061-1.278-.524 1.17a3.777 3.777 0 00-.392-.046L9.993 2.5l-.237 1.257a3.779 3.779 0 00-.394.045L8.84 2.634l.062 1.276a3.73 3.73 0 00-.373.134l-.78-1.016.356 1.227a3.747 3.747 0 00-.332.216l-.995-.81.632 1.113c-.095.09-.186.186-.272.286L5.98 4.5l.874.937a4 4 0 00-.2.341L5.4 5.497l1.068.713a3.655 3.655 0 00-.113.377l-1.288.014 1.206.45a3.91 3.91 0 00-.022.392L5 7.751l1.279.162c.016.131.039.26.069.386L5.2 8.886l1.283-.135c.046.123.099.243.157.36l-.98.833 1.22-.426c.072.109.151.213.235.313l-.76 1.037 1.088-.694c.096.089.196.172.301.25l-.5 1.185.899-.925c.113.064.23.122.35.174l-.21 1.268.659-1.107c.124.036.252.066.381.09l.09 1.282.385-1.229c.063.003.127.005.19.005zm2.812-3.72c0 1.553-1.269 2.812-2.835 2.812-1.565 0-2.835-1.259-2.835-2.812s1.27-2.812 2.835-2.812c1.566 0 2.835 1.26 2.835 2.812zm-.857.916a2.136 2.136 0 00.008-1.722c-.49.035-.904.164-1.24.329.746.326 1.084.864 1.232 1.393zm-.241.411c-.061.082-.128.16-.2.232-.04-.738-.355-1.3-.922-1.908.701.336 1.097 1.138 1.122 1.676zm-.537.507a2.14 2.14 0 01-.121.075c-.168-.829-.487-1.483-.93-2.006l.107-.081.044-.032c.567.652.925 1.212.9 2.044zm-1.181.355c.251 0 .492-.043.717-.123-.163-.789-.447-1.523-.858-2.053a3.062 3.062 0 00-.75 1.983c.272.124.573.193.89.193zm-.413-2.43l.049.04c-.523.594-.809 1.265-.858 2.009a2.152 2.152 0 01-.184-.144c.197-.787.523-1.436.993-1.905zm-1.56-.55c.49.055.878.174 1.169.313-.74.314-1.033.822-1.18 1.339a2.137 2.137 0 01.01-1.652zm.268 2.137a2.164 2.164 0 01-.048-.066c.037-.543.383-1.314 1.081-1.632A3.74 3.74 0 008.28 8.793zm.159-2.784a2.138 2.138 0 013.073-.02c-.612.072-1.13.225-1.552.464-.375-.216-.883-.361-1.521-.444z" fill="#FFDC17"/>
    </g>
  </g>
</svg>
